X:1
T: Nae bannocks
C:Bruce Shawyer
R:Strathspey
Q:128
K:C
M:4/4
L:1/16
|:G4c4 e3d c4|A4 F3A G8|G4c4 e3d c4|d4d3ed8|
G4c4 e3d c4|A4 F3A G8|A4 F3A G3c e4|d3c B4c8|
e4c4 G3c e4|f3g f4 e8|f3g f4 e3f e4|d3e d4d8|
e4c4 G3c e4|f3g f4 e8|f3g f4 e3f e4|d3e d4c8:|
